X:76
T:Himne de Riego
C:trad
D:La Portatil FM - Ball al ditonic (CD - 1994) 
N:A well known traditional tune which was adopted as 
N:the hymn of the Spanish Republic (1936/39) 
L:1/8
M:6/8
Z:transcribed into abc by Gianni Cunich, g.cunich@tiscalinet.it <mailto:g.cunich@tiscalinet.it>
K:G
D |: B2B BAG | G3 F2D | c2c cBA | d2B G2D |
B2B BAG | G3 F2D | ded cBA |1 G3-G2D :|2 GGA Bcd |]
e2e edc | d2d dcB | c2c cBA | d2B G2G |
e2e edc | d2d dcB | ced cBA |1 GGA Bcd :|2 G3- G2B |]
A2B c2d | e3 c2e | d2c B2A | d2B G2B |
A2B c2d | e3 c2e | ded cBA |1 G3- G2B :|2 G3- G2 |]

